!!!OTL: Der englische Gruss.
!!!OTL-incipit: GEGRUESSET, MARIA, DU MUTTER DER GNADEN
!!!ARE: Europa, Mitteleuropa, Deutschland, Niederrhein
!!!SCT: Z1126
!!!TXL: @@DE
!!!YEM: Copyright 1995, estate of Helmut Schaffrath.
**kern	**text
*ICvox	*
*M3/4	*
*k[b-]	*
*d:	*
!LO:TX:a:t=Niederrhein.	!
{4d	Ge-
=1	=1
4g	-grü-
4g	-ßet,
8aL	Ma-
8gJ	.
=2	=2
4f	-ri-
4f	-a,
4f	du
=3	=3
4b-	Mutter
4b-	.
8ccL	der
8b-J	.
=4	=4
4a	Gna-
4g}	-den,
{4d	ge-
=5	=5
4g	-grü-
4g	-ßet,
8aL	Ma-
8gJ	.
=6	=6
4f	-ri-
4f	-a,
4f	du
=7	=7
4b-	Mut-
4b-	-ter
(8ccL	der
8b-J)	.
=8	=8
4a	Gna-
4g;}	-den!
{4a	ſo
=9	=9
4b	ſan-
4b	-gen
4cc#	die
=10	=10
4dd	En-
4dd	-gel
8aL	der
8gJ	.
=11	=11
4a	Jungfrau
4a	.
8gL	Ma-
8fJ	.
=12	=12
4e	-ri-
4d;}	-a
{8dL	in
8eJ	.
=13	=13
4f	ih-
4a	-rem
4g	Ge-
=14	=14
4a	-be-
4g	-te,
4f	dar-
=15	=15
4g	-in-
4f	-nen
4e	ſie
=16	=16
2d}	rang.
==	==
!!!AGN: religioeses Lied, Maria
!!!ONB: ESAC (Essen Associative Code) Database: ZUCCAL
!!!AMT: simple triple
!!!AIN: vox
!!!EED: Helmut Schaffrath
!!!EEV: 1.0
!!!GTL: III. Haus- Andacht.
!!!URL-scan: https://www.digitale-sammlungen.de/de/view/bsb11160573?page=274
!!!ENC: Anna Maria Matuszewska
!!!EEV: 2025/02/04
*-	*-
